X:1
T:Lore-Ley
T:Friedrich Silcher
T:Heinrich Heine
T:Lore-Ley
T:CPDL   —   Creative Commons Attribution Non Commercial 3.0
C:Friedrich Silcher
Z:Heinrich Heine
Z:CPDL   —   Creative Commons Attribution Non Commercial 3.0
%%score [ ( 1 2 ) ( 3 4 ) ]
L:1/8
Q:1/4=66
M:6/8
K:F
V:1 treble-8 nm="T"
V:2 treble-8 
V:3 bass nm="B"
V:4 bass 
V:1
"^Andante" c | (c>d)c (fe)d | c3 B2 B | A2 A{A} GFG | A3- A z | c | c>dc fed | c3 B2 B | %8
w: 1. Ich|weiß nicht, was soll es be-|deu- ten, dass|ich so trau- * rig|bin; _|ein|Mär- chen aus al- * ten|Zei- ten, das|
w: 2. Die|schöns- * te Jung- * frau|sit- zet dort|o- ben wun- * der-|bar; _|ihr|gold'- nes Ge- schmei- * de|blit- zet, sie|
w: 3. Den|Schif- fer im klei- * nen|Schif- fe er-|greift es mit wil- * dem|Weh; _|er|schaut nicht die Fel- * sen-|rif- fe, er|
 A2 A (cB)G | F3- F z A | (G>A)G cGG | e3 d2 d | c2 c (=Bc)d | c3- c2 c | c>dc fed | (c2 a) g2 g | %16
w: kommt mir nicht aus dem|Sinn. _ Die|Luft _ ist kühl und es|dun- kelt, und|ru- hig fließt _ der|Rhein; _ der|Gip- fel des Ber- * ges|fun- * kelt im|
w: kämmt ihr gold'- * nes|Haar; _ sie|kämmt es mit gol- de- nem|Kam- me und|singt ein Lied _ da-|bei; _ das|hat ei- ne wun- * der-|sa- * me, ge-|
w: schaut nur hin- auf in die|Höh'. _ Ich|glau- be, die Wel- len ver-|schlin- gen am|En- de Schif- fer und|Kahn; _ und|das hat mit ih- * rem|Sin- * gen die|
"^.      " f2 f{f} ede | f3- f z |] %18
w: A- bend- son- * nen-|schein. _|
w: wal \- ti \-  ge Me- * lo-|dei. _|
w: Lo- re- Ley _ ge-|tan. _|
V:2
 A | (A>B)A (dc)B | A3 G2 G | F2 F EDE | F3- F x | A | A>BA dcB | A3 G2 G | F2 F (AG)E | %9
 F3- F x F | (E>F)E EGG | c3 A2 A | G2 G (GG)G | (G2 A _BA)G | A>BA dcB | (A2 c) d2 d | c2 c B2 B | %17
 A3- A x |] %18
V:3
 F, | (F,>F,)F, (F,F,)F, | F,3 D,2 D, |"^.     " C,2 C, C,2 C, | C,3- C, z | F, | %6
 F,>F,F, F,2 F, | F,3 D,2 D, |"^.      " C,2 C, (C,C,)C, | A,,3- A,, z F, | (C,>C,)C, C,E,E, | %11
 G,3 F,2 F, | E,2 E, (D,E,)F, | (E,2 F, G,F,)E, | F,>F,F, F,2 F, | F,3 B,2 B, | A,2 A, G,F,G, | %17
 F,3- F, z |] %18
V:4
 F, | (F,>F,)F, (F,F,)F, | F,3 B,,2 B,, | C,2 C, C,2 C, | F,,3- F,, x | F, | F,>F,F, F,2 F, | %7
 F,3 B,,2 B,, | C,2 C, (C,C,)C, | F,,3- F,, x F, | (C,>C,)C, C,E,E, | C,3 F,,2 F,, | %12
 G,,2 G,, (G,,G,,)G,, | C,3- C,2 C, | F,>F,F, F,2 F, | F,3 B,,2 B,, | C,2 C, C,2 C, | %17
 F,,3- F,, x |] %18

